X:1
T:Title
%%score { ( 1 4 ) | ( 2 3 ) }
L:1/8
M:4/4
K:Ab
V:1 treble nm="Grand Piano"
V:4 treble 
V:2 bass 
V:3 bass 
V:1
 z4 z2[Q:1/4=100] [CE]2 | [CA]2 [CE]>[CE] [EA]2 [Ec]2 | [FB]2 [DF]4 [_Ge]2 | %3
 [Fd]2 [Fc]2 [FB]2 [F_c]2 |[M:3/4] c4 B2 |[M:1/4] B2 |[M:4/4] [CA]2 [CE]>[CE] [Ec]2 [_Ge]2 | %7
 [Fe]2 [Fd]4 [Fd]2 | c2 B2 F2 G2 |[M:3/4] [A,CA]6 |[M:1/4] [CEA]2 | %11
[M:4/4] [B,EG]2 [B,EG]>[B,FA] [EGB]2 [Ac]2 | [Gd]2 [Gd]4 [Ed]2 | [=Dc]2 [DB]>[DB] [DB]2 [Dc]2 | %14
[M:3/4] [EB]6 |[M:1/4] [DB]2 |[M:4/4] [CA]2 [CE]>[CE] [EA]2 [Ec]2 | [FB]2 [DF]4 [Fd]2 | %18
 c2 B2 F2 G2 |[M:3/4] [A,CA]6 |[M:1/4] [CEA]2 |[M:4/4] [Ec]2 [CE]>[CE] [DF]2 [Fd]2 | z4 z2 B2 | %23
 z2 =A2 z4 |[M:3/4] [EB]6 |[M:1/4] [EB]2 |[M:4/4] [Ec]2 [CEA]>[CEA] [Ec]2 [_Ge]2 | %27
 [Fe]2 [Fd]4 [Fd]2 | c2 B2 F2 G2 |[M:3/4] [CA]6 |] %30
V:2
 z4 z2 [A,,A,]2 | [A,,A,]2 [A,,A,]>[A,,A,] [C,A,]2 [A,,A,]2 | [D,A,]2 [D,A,]4 [C,=A,]2 | %3
 [B,,B,]2 [C,=A,]2 [D,B,]2 [=D,A,]2 |[M:3/4] [E,E]6 |[M:1/4] z2 |[M:4/4] z8 | %7
 [D,A,]2 [D,A,]4 [D,A,]2 | [E,A,E]2 [E,G,E]2 [E,A,=D]2 [E,B,_D]2 |[M:3/4] A,,6 |[M:1/4] A,,2 | %11
[M:4/4] E,2 E,>E, E,2 [E,A,]2 | [E,B,]2 [E,B,]4 [E,G,]2 | %13
 [B,,A,]2 [B,,F,]>[B,,F,] [B,,B,]2 [B,,A,]2 |[M:3/4] [E,G,]6 |[M:1/4] [E,G,]2 | %16
[M:4/4] [A,,A,]2 [A,,A,]>[A,,A,] [C,A,]2 [A,,A,]2 | [D,A,]2 [D,A,]4 [D,A,]2 | %18
 [E,A,E]2 [E,G,E]2 [E,A,=D]2 [E,B,_D]2 |[M:3/4] A,,6 |[M:1/4] A,,2 | %21
[M:4/4] [A,,A,]2 [A,,A,]>[A,,A,] [D,A,]2 [D,A,]2 | [E,A,E]2 [E,G,E]4 .[E,G,E]2 | %23
 [F,A,C]2 .[F,CF]2 [B,,B,]2 [B,,A,]2 |[M:3/4] [E,G,]6 |[M:1/4] [E,G,]2 | %26
[M:4/4] [A,,A,]2 A,,>A,, [A,,A,]2 [A,,A,]2 | [D,A,]2 [D,A,]4 [D,A,]2 | %28
 [E,A,E]2 [E,G,E]2 [E,A,=D]2 [E,B,_D]2 |[M:3/4] [A,,A,]6 |] %30
V:3
 x8 | x8 | x8 | x8 |[M:3/4] A,4- [G,A,-]2 |[M:1/4] [E,G,A,-D]2 | %6
[M:4/4] [A,,A,]2 [A,,A,]>[A,,A,] [A,,A,]2 [C,A,]2 | x8 | x8 |[M:3/4] x6 |[M:1/4] x2 |[M:4/4] x8 | %12
 x8 | x8 |[M:3/4] x6 |[M:1/4] x2 |[M:4/4] x8 | x8 | x8 |[M:3/4] x6 |[M:1/4] x2 |[M:4/4] x8 | x8 | %23
 x8 |[M:3/4] x6 |[M:1/4] x2 |[M:4/4] x8 | x8 | x8 |[M:3/4] x6 |] %30
V:4
 x8 | x8 | x8 | x8 |[M:3/4] x6 |[M:1/4] x2 |[M:4/4] x8 | x8 | x8 |[M:3/4] x6 |[M:1/4] x2 | %11
[M:4/4] x8 | x8 | x8 |[M:3/4] x6 |[M:1/4] x2 |[M:4/4] x8 | x8 | x8 |[M:3/4] x6 |[M:1/4] x2 | %21
[M:4/4] x8 | c2 B4 z D | A2 z E [=DB]2 [Dc]2 |[M:3/4] x6 |[M:1/4] x2 |[M:4/4] x8 | x8 | x8 | %29
[M:3/4] x6 |] %30

